communes/37.svg

<?xml version="1.0" encoding="UTF-8" standalone="no"?>
<!-- Created with Inkscape (http://www.inkscape.org/) -->
<svg
   xmlns:svg="http://www.w3.org/2000/svg"
   xmlns="http://www.w3.org/2000/svg"
   version="1.0"
   width="217.14821"
   height="254.3553"
   id="svg2780">
  <defs
     id="defs2782" />
  <g
     transform="translate(-14.166755,-808.82735)"
     id="layer1">
    <path
       d="M 15.166755,809.82735 L 19.078537,974.15171 C 21.872659,1091.5263 223.60904,1091.5263 226.40318,974.15171 L 230.31496,809.82735 L 15.166755,809.82735 z"
       id="path3282"
       style="fill:#ffffff;fill-opacity:1;fill-rule:evenodd;stroke:#000000;stroke-width:2;stroke-linecap:butt;stroke-miterlimit:4;stroke-dashoffset:0;stroke-opacity:1" />
    <path
       d="M 123.26791,1014.4716 C 119.50998,929.61111 122.65119,892.42604 125.1756,864.58447 C 131.70038,864.84042 139.63953,866.38281 145.08108,869.14123 C 144.31686,869.57118 143.05963,870.12438 140.96796,870.8862 C 145.74583,872.14386 150.5237,873.21286 155.30157,875.74716 C 154.12115,876.71005 152.69959,877.19068 151.18844,877.49212 C 155.43044,879.84112 160.10694,881.92942 162.77997,885.21981 C 162.03004,885.92506 160.40515,886.19283 159.04077,886.59085 C 162.88969,888.94732 167.1961,890.3888 170.13374,894.56781 L 166.39454,895.56494 C 170.11989,899.4731 174.32708,902.99578 176.49038,908.15359 L 173.00046,908.90143 C 175.89882,914.05284 179.81221,918.39222 181.22671,924.73072 L 177.16535,925.10464 C 178.72724,929.41152 180.90975,933.51153 180.60351,938.44113 L 177.16535,938.56577 C 177.81463,942.80309 179.16181,947.61377 178.60927,952.15154 C 177.63356,951.42383 176.42618,950.9278 175.11934,950.53122 C 174.87856,956.06244 175.77888,962.52523 173.7483,968.35475 C 172.62654,967.11506 171.50478,966.60847 170.38302,966.36051 C 169.34965,971.76828 169.17418,978.20669 166.02062,983.31157 C 165.1605,981.8619 164.09671,981.02324 162.90461,980.56949 C 162.84214,986.00908 162.17392,991.58078 159.78861,996.02486 C 159.03557,995.19393 158.49805,994.36299 156.79725,993.53206 C 156.61972,997.72342 155.68679,1001.9293 153.18269,1005.1236 C 152.50613,1004.2096 151.77116,1003.2955 150.4406,1002.3815 C 149.76675,1007.1133 148.12072,1011.7329 145.455,1015.4687 L 143.21148,1013.1005 C 141.34607,1017.6749 139.51581,1022.2844 136.35627,1025.5646 L 134.98523,1022.3239 C 131.90899,1027.6114 128.97534,1032.9601 123.64298,1037.2807 C 117.41557,1032.8549 113.27303,1027.9078 109.68329,1022.8225 C 109.40043,1024.2846 108.4992,1025.1283 107.56441,1025.9385 C 103.68722,1022.4193 100.7776,1018.6099 100.21064,1014.0977 C 99.861409,1014.804 99.270241,1015.5103 98.590321,1016.2165 C 95.562945,1012.6864 93.198822,1009.5557 91.859755,1005.9961 C 91.930938,1007.2207 91.4139,1008.0531 90.488714,1008.6135 C 87.411217,1004.5131 85.631509,1000.042 84.879909,995.27702 C 84.589427,996.56531 84.206613,997.76127 83.259588,998.39302 C 80.977595,992.74318 80.461794,987.38771 80.143586,982.06517 L 76.778303,985.18117 C 75.282622,981.27578 74.451687,977.03802 74.285501,972.46788 C 73.496114,973.05118 72.706726,973.72123 71.917339,974.96068 C 71.155903,969.10726 71.308052,963.40609 72.540539,957.88499 L 68.925976,960.50243 C 68.765762,954.19331 69.252399,948.53103 70.421658,943.55138 L 67.181015,944.79778 C 67.454557,938.93105 69.030813,933.71568 71.294138,928.84384 L 67.679575,928.96848 C 68.665962,924.0941 70.871873,920.74412 73.16374,917.50159 L 69.050617,917.00303 C 70.440719,911.36275 73.385279,907.8987 76.404383,904.53902 L 72.665179,904.04046 C 74.443982,900.24674 77.661559,896.65856 81.763907,893.19677 L 77.650784,892.19965 C 81.335134,888.03168 85.72426,884.56848 90.737994,881.72988 L 87.995912,879.86028 C 91.449781,877.3134 94.938928,874.69479 99.712082,874.12684 L 96.471439,871.38476 C 103.95543,867.77495 111.67828,864.96137 120.15306,864.65419 C 120.68829,850.5635 120.42764,836.79116 117.66026,824.02152 C 120.65285,821.78169 123.80794,820.02935 127.1329,818.78663 C 128.61783,865.32673 117.32986,880.3803 123.26791,1014.4716"
       id="path6212"
       style="fill:#d33919;fill-opacity:1;fill-rule:evenodd;stroke:#000000;stroke-width:1px;stroke-linecap:butt;stroke-linejoin:miter;stroke-opacity:1" />
  </g>
</svg>

<?xml version="1.0" encoding="UTF-8"?>
<svg version="1.0" viewBox="0 0 217.15 254.36" xmlns="http://www.w3.org/2000/svg">
<g transform="translate(-14.167 -808.83)" fill-rule="evenodd" stroke="#000">
<path d="m15.167 809.83 3.9118 164.32c2.7941 117.37 204.53 117.37 207.32 0l3.9118-164.32h-215.15z" fill="#fff" stroke-width="2"/>
<path d="m123.27 1014.5c-3.7579-84.86-0.61672-122.05 1.9077-149.89 6.5248 0.25595 14.464 1.7983 19.905 4.5568-0.76422 0.42995-2.0214 0.98315-4.1131 1.745 4.7779 1.2577 9.5557 2.3267 14.334 4.861-1.1804 0.96289-2.602 1.4435-4.1131 1.745 4.242 2.349 8.9185 4.4373 11.592 7.7277-0.74993 0.70525-2.3748 0.97302-3.7392 1.371 3.8489 2.3565 8.1553 3.798 11.093 7.977l-3.7392 0.99713c3.7254 3.9082 7.9325 7.4308 10.096 12.589l-3.4899 0.74784c2.8984 5.1514 6.8118 9.4908 8.2262 15.829l-4.0614 0.37392c1.5619 4.3069 3.7444 8.4069 3.4382 13.336l-3.4382 0.12464c0.64928 4.2373 1.9965 9.048 1.4439 13.586-0.97571-0.72771-2.1831-1.2237-3.4899-1.6203-0.24078 5.5312 0.65954 11.994-1.371 17.824-1.1218-1.2397-2.2435-1.7463-3.3653-1.9942-1.0334 5.4078-1.2088 11.846-4.3624 16.951-0.86012-1.4497-1.9239-2.2883-3.116-2.7421-0.06247 5.4396-0.73069 11.011-3.116 15.455-0.75304-0.83093-1.2906-1.6619-2.9914-2.4928-0.17753 4.1914-1.1105 8.3972-3.6146 11.592-0.67656-0.914-1.4115-1.8281-2.7421-2.7421-0.67385 4.7318-2.3199 9.3514-4.9856 13.087l-2.2435-2.3682c-1.8654 4.5744-3.6957 9.1839-6.8552 12.464l-1.371-3.2407c-3.0762 5.2875-6.0099 10.636-11.342 14.957-6.2274-4.4258-10.37-9.3729-13.96-14.458-0.28286 1.4621-1.1841 2.3058-2.1189 3.116-3.8772-3.5192-6.7868-7.3286-7.3538-11.841-0.34923 0.7063-0.9404 1.4126-1.6203 2.1188-3.0274-3.5301-5.3915-6.6608-6.7306-10.22 0.071183 1.2246-0.44586 2.057-1.371 2.6174-3.0775-4.1004-4.8572-8.5715-5.6088-13.336-0.29048 1.2883-0.6733 2.4842-1.6203 3.116-2.282-5.6498-2.7978-11.005-3.116-16.328l-3.3653 3.116c-1.4957-3.9054-2.3266-8.1432-2.4928-12.713-0.78939 0.5833-1.5788 1.2534-2.3682 2.4928-0.76144-5.8534-0.60929-11.555 0.6232-17.076l-3.6146 2.6174c-0.16021-6.3091 0.32642-11.971 1.4957-16.951l-3.2406 1.2464c0.27354-5.8667 1.8498-11.082 4.1131-15.954l-3.6146 0.12464c0.98639-4.8744 3.1923-8.2244 5.4842-11.467l-4.1131-0.49856c1.3901-5.6403 4.3347-9.1043 7.3538-12.464l-3.7392-0.49856c1.7788-3.7937 4.9964-7.3819 9.0987-10.844l-4.1131-0.99712c3.6844-4.168 8.0735-7.6312 13.087-10.47l-2.7421-1.8696c3.4539-2.5469 6.943-5.1655 11.716-5.7334l-3.2406-2.7421c7.484-3.6098 15.207-6.4234 23.682-6.7306 0.53523-14.091 0.27458-27.863-2.4928-40.633 2.9926-2.2398 6.1477-3.9922 9.4726-5.2349 1.4849 46.54-9.803 61.594-3.865 195.68" fill="#d33919" stroke-width="1px"/>
</g>
</svg>
